!!!OTL: Auf, Brueder, lasst uns lustig leben.
!!!OTL-incipit: AUF BRUEDER LASST UNS LUSTIG LEBEN
!!!COM: Studentenweise
!!!ARE: Europa, Mitteleuropa, Deutschland
!!!SCT: F0497
!!!TXL: @@DE
!!!YEM: Copyright 1995, estate of Helmut Schaffrath.
**kern	**text
*ICvox	*
*clefG2	*
*M3/4	*
*k[b-e-a-]	*
*E-:	*
!LO:TX:a:t=Solo.	!
!LO:TX:a:t=Lebhaft.	!
!LO:TX:a:t=P:only the highest voice encoded:problem	!
{4b-/	1._Auf,
=1	=1
2b-/	Brüder,
4ee-	.
=2	=2
2b-/	laßt
4g	uns
=3	=3
(>4a-	lu-
4f)	.
4b-/	-ſtig
=4	=4
4g	le-
4e-}	-ben!
!LO:TX:a:t=Alle.	!
{4B-	Vi-
=5	=5
8e-	-val-
8e-	-le-
8e-	-ral-
8e-	-le-
8e-	-ral-
8e-	-le-
=6	=6
2e-}	-ra!
!LO:TX:a:t=Solo.	!
{4b-/	auf
=7	=7
2b-/	daß
4ee-	das
=8	=8
2b-/	gan-
4g	-ʒe
=9	=9
(>4a-	Haus
4f)	.
4b-/	mag
=10	=10
4g	be-
4e-}	-ben!
!LO:TX:a:t=Alle.	!
{4f	Vi-
=11	=11
8g	-val-
8g	-le-
8g	-ral-
8g	-le-
8g	-ral-
8g	-le-
=12	=12
2g}	-ra!
!LO:TX:a:t=Solo.	!
{4b-/	Bei
=13	=13
(>4ee-/	Bier,
4dd/)	.
4cc/	Ta-
=14	=14
(>4b-/	-bak,
4a-)	.
4g	und
=15	=15
2a-	nicht
4b-/	bei
=16	=16
2cc/}	Wein,
{4dd/	da
=17	=17
(>4ee-/	wol-
4dd/)	.
4cc/	-len
=18	=18
2b-/	wir
4ee-/	jetʒt
=19	=19
(>4ff/	lu-
4ee-/)	.
4dd/	-ſtig
=20	=20
2ee-/}	ſein.
!LO:TX:a:t=Alle.	!
{4B-	Vi-
=21	=21
8e-	-val-
8e-	-le-
8e-	-ral-
8e-	-le-
8e-	-ral-
8e-	-le-
=22	=22
2e-}	-ra!
{4f	Vi-
=23	=23
8g	-val-
8g	-le-
8g	-ral-
8g	-le-
8g	-ral-
8g	-le-
=24	=24
2g}	-ra!
{4b-/	Vi-
=25	=25
8ee-	-val-
8ee-	-le-
8ee-	-ral-
8ee-	-le-
8ee-	-ral-
8ee-	-le-
=26	=26
2ee-;}	-ra!
==	==
!!!AGN: Studenten - Lied
!!!ONB: ESAC (Essen Associative Code) Database: FINK
!!!AMT: simple triple
!!!AIN: vox
!!!EED: Helmut Schaffrath
!!!EEV: 1.0
!!!RDF**kern: > = above
!!!GTL: Studentenlieder
!!Text: Studentenlied
!!!source: Musikalischer Hausschatz der Deutschen. Eine Sammlung von über 1000 Liedern und Gesängen mit Singstimmen und Klavierbegleitung. Leipzig, Litterarisches Verlags-Haus.
!!!page: 315
!!!URL-scan: https://www.digitale-sammlungen.de/en/view/bsb11144622?page=280
!!!ENC: Anna Maria Matuszewska
!!!EEV: 2024/01/08
*-	*-
